X:1
T: Miss Muir McKenzie's Strathspey
C:
R:Strathspey
Q: 128
K:E
M:4/4
L:1/16
|:g2|e3B eg3 eB3 eg3|f3e g2e2 c4 c2f2|f3B eg3 eB3 eg3|e3c B2G2 E4 E3e|
eB3 eg3 eB3 eg3|f3e g3e c4 c2f2|ea3 g3f e3c B2c2|BG3 F3G E4 E2B2|
G3B E3g f3e f2g2|e3c B2G2 F4 F2B2|G2B2 E3g f3e f2g2|e3c B2G2 E4 E3B|
G3B E3g f3e f2g2|e3c B2G2 F4 F2B2|G2B2 E2g2 ea3 g3f|e3c B2G2 E4 E2:|
